X: 7
T: Strayaway Child / Mason's Apron  v.2
P: piffero secondo a0737
O: Dan Moylan
%R: jig, reel
F: http://ancients.sudburymuster.org/mus/ssp/pdf/shadydealF.pdf
Z: 2019 John Chambers <jc:trillian.mit.edu>
M: 6/8
L: 1/8
K: Am
P: the Strayaway Child
B |:\
EAc c3 | c2A E2D | EAc c3 | G2G B3 |\
EAc c3 | c2A E2D | EAc c3 | AAB c3 :|
|:\
A2c c3 | c2A BAB | A2c c3 | cAc B3 |\
A2c c3 | c2A BAB | A2c c2B |[1 AAB c3 :|\
[2 AAB c3- |] c3 B3 |
P: the Mason's Apron
[K:A][M:2/4][L:1/16]|:\
AFF2 FEFF | BAF2 BABF | B2d2 BABF | BABc dcB2 | AFF2 FEFF |
BAF2 BABF | BABc dcB2 |[1 F2AE F4 :|[2 F2AE F2 |: E2 | A2FA d2fc | e2c2 dcBA |
B2d2 edB2 | Bcde fdcB | A2ce dcc2 | BAF2 BABF | BABc dcB2 | F2AE F2 :|

% %sep 1 1 200
% %center - - - - - - - - - -
% Whatever we want at the bottom of each set belongs here.
